src/components/Icon/icons/store_active.svg

<svg width="100%" height="100%" viewBox="0 0 20 20" fill="none" xmlns="http://www.w3.org/2000/svg">
<path d="M2.91944 8.00846C3.17083 6.28624 4.77914 5 6.68125 5H13.3187C15.2208 5 16.8292 6.28624 17.0805 8.00846L17.9661 14.0751C18.2694 16.1534 16.4995 18 14.2043 18H5.79572C3.5005 18 1.73058 16.1534 2.03392 14.0751L2.91944 8.00846Z" fill="currentColor" stroke="currentColor" stroke-width="1.67" stroke-linejoin="round"/>
<path d="M6.6665 4.83366V5.00033C6.6665 3.15938 8.15889 1.66699 9.99984 1.66699C11.8408 1.66699 13.3332 3.15938 13.3332 5.00033V4.83366" stroke="currentColor" stroke-width="1.67" stroke-linecap="round" stroke-linejoin="round"/>
<path fill-rule="evenodd" clip-rule="evenodd" d="M7.50004 8.33203C7.9612 8.33203 8.33504 8.70587 8.33504 9.16703V10.0004C8.33504 10.92 9.08045 11.6654 10 11.6654C10.9196 11.6654 11.665 10.92 11.665 10.0004V9.16703C11.665 8.70587 12.0389 8.33203 12.5 8.33203C12.9612 8.33203 13.335 8.70587 13.335 9.16703V10.0004C13.335 11.8423 11.8419 13.3354 10 13.3354C8.15813 13.3354 6.66504 11.8423 6.66504 10.0004V9.16703C6.66504 8.70587 7.03888 8.33203 7.50004 8.33203Z" fill="#EBF0FB"/>
</svg>

<svg xmlns="http://www.w3.org/2000/svg" fill="none" viewBox="0 0 20 20"><path fill="currentColor" stroke="currentColor" stroke-linejoin="round" stroke-width="1.67" d="M2.92 8.008C3.17 6.286 4.78 5 6.68 5h6.638c1.902 0 3.51 1.286 3.762 3.008l.885 6.067C18.27 16.153 16.5 18 14.204 18H5.796C3.5 18 1.73 16.153 2.034 14.075z"/><path stroke="currentColor" stroke-linecap="round" stroke-linejoin="round" stroke-width="1.67" d="M6.667 4.834V5a3.333 3.333 0 0 1 6.666 0v-.166"/><path fill="#ebf0fb" fill-rule="evenodd" d="M7.5 8.332c.461 0 .835.374.835.835V10a1.665 1.665 0 1 0 3.33 0v-.833a.835.835 0 0 1 1.67 0V10a3.335 3.335 0 1 1-6.67 0v-.833c0-.461.374-.835.835-.835" clip-rule="evenodd"/></svg>
